X: 22342
T: La Vieille Maclotte
R: jig
M: 6/8
K: Eminor
|:B|E2B B2A|~G3 ABc|BAG FBA|GFG EED|
E2B B2A|~G3 ABc|BAG FED|E3 E2:|
|:E|G2F E2D|EDE B2E|G2F E2D|E3 E2B|
d2^c B2A|G3 ABc|BAG FED|~E3 E2:|

